src/status/16/fcitx-sogoupinyin.svg

<svg width="16" height="16" version="1.1" xmlns="http://www.w3.org/2000/svg">
 <defs>
  <style id="current-color-scheme" type="text/css">.ColorScheme-Text { color:#363636; } .ColorScheme-Highlight { color:#4285f4; }</style>
 </defs>
 <path class="ColorScheme-Text" d="m3 0c-1.662 0-3 1.338-3 3v10c0 1.662 1.338 3 3 3h9.9989c1.662 0 3-1.338 3-3v-10c0-1.662-1.338-3-3-3zm0 1h9.9989c1.108 0 2 0.892 2 2v10c0 1.108-0.892 2-2 2h-9.9989c-1.108 0-2-0.892-2-2v-10c0-1.108 0.892-2 2-2z" fill="currentColor"/>
 <path class="ColorScheme-Text" d="m6.75 3a2.75 2.75 0 0 0-2.75 2.75 2.75 2.75 0 0 0 2.75 2.75h2.5a1.75 1.75 0 0 1 1.75 1.75 1.75 1.75 0 0 1-1.75 1.75h-4.25v1h4.25a2.75 2.75 0 0 0 2.75-2.75 2.75 2.75 0 0 0-2.75-2.75h-2.5a1.75 1.75 0 0 1-1.75-1.75 1.75 1.75 0 0 1 1.75-1.75h4.25v-1h-4.25z" fill="currentColor"/>
</svg>

<svg xmlns="http://www.w3.org/2000/svg" width="16" height="16">
    <defs>
        <style id="current-color-scheme" type="text/css">
            .ColorScheme-Text{color:#050505;opacity:.7}
        </style>
    </defs>
    <path fill="currentColor" d="M3 0C1.338 0 0 1.338 0 3v10c0 1.662 1.338 3 3 3h9.999c1.662 0 3-1.338 3-3V3c0-1.662-1.338-3-3-3zm0 1h9.999c1.108 0 2 .892 2 2v10c0 1.108-.892 2-2 2H3c-1.108 0-2-.892-2-2V3c0-1.108.892-2 2-2z" class="ColorScheme-Text"/>
    <path fill="currentColor" d="M6.75 3A2.75 2.75 0 0 0 4 5.75 2.75 2.75 0 0 0 6.75 8.5h2.5A1.75 1.75 0 0 1 11 10.25 1.75 1.75 0 0 1 9.25 12H5v1h4.25A2.75 2.75 0 0 0 12 10.25 2.75 2.75 0 0 0 9.25 7.5h-2.5A1.75 1.75 0 0 1 5 5.75 1.75 1.75 0 0 1 6.75 4H11V3H6.75z" class="ColorScheme-Text"/>
</svg>
